!!!OTL: 206. Der Morgen im Lenz.
!!!COM: J. A. P. Schulz
!!!ODT: 1795
!!!ARE: Europa, Mitteleuropa, Deutschland
!!!SCT: B0206
!!!TXL: @@DE
!!!YEM: Copyright 1995, estate of Helmut Schaffrath.
**kern	**text
*ICvox	*
*Ivox	*
*cwlfG2	*
*M2/4	*
*k[f#]	*
*G:	*
!LO:TX:a:t=Nicht ʒu geſchwind.	!
{8dd	Wie
=1	=1
4dd	rei-
8b	-ʒend,
8dd	wie
=2	=2
4dd	won-
8b}	-nig
{8dd	iſt
=3	=3
4cc	Al-
8a	-les
8a	um-
=4	=4
4b	-her!
8r}	.
{8dd	Am
=5	=5
4dd	Hü-
8b	-gel
8dd	wie
=6	=6
4dd	ſon-
8b}	-nig,
{8dd	wie
=7	=7
4cc	ſchat-
8a	-tig
8a	am
=8	=8
4b	Wehr!
8r}	.
{8b	Dort
=9	=9
4a	ſpie-
8a	-geln
8a	ſich
=10	=10
4cc	Er-
8cc}	-len
{8cc	im
=11	=11
4b	blau-
8b	-en
8b	Kry-
=12	=12
4ee	-ſtall,
8r}	.
{8ee	hier
=13	=13
4dd	wie-
8dd	-gen
8dd	ſich
=14	=14
4gg	Schmerlen
8dd}	.
{8b	im
=15	=15
4cc	to-
8a	-ſen-
8f#	-den
=16	=16
4g	Fall.
8r}	.
==	==
!!!AGN: Jahreszeiten - Lied, Fruehling, Natur
!!!GTL: Jahreszeitenlieder
!!!ONB: ESAC (Essen Associative Code) Database: BOEHME
!!!AMT: simple duple
!!!AIN: vox
!!!EED: Helmut Schaffrath
!!!EEV: 1.0
!!J. A. P. Schulʒ. 1795.
!!@@COMMENT:"Gedicht von G. W. Becker. Ʒuerſt in deſſen: "Neues geſellſchaftliches Liederbuch Ham-
!!burg. 1795. Als Mel. iſt dort angegeben: "Bekränʒet die Tannen rc.""
!!@@END:
!!!Text: G. W. Becker
!!!URL-scan: https://archive.org/details/BoehmeVtLieder1895/page/n191/mode/2up
!!!ENC: Anna Maria Matuszewska
!!!EEV: 2024/24/06
*-	*-
